X: 33233
T: Puirt-a-Beul
R: strathspey
M: 4/4
K: Amixolydian
|:c<A A/A/A G>A B>d|c<A A/A/A g>e f<d|c<A A/A/A G>A B>d|g>e f>d B>d e<a:|
g2 g>e d>e d>B|c<a a>f g>e f<d|g2 g>e d>e d>B|c<a g>e f<d e2|
g2 g>e d>e d>B|c<a a>f g>e f>d|c<A A/A/A G>A B>d|g>e f>d B<d e2||

